X:1
T: City of Roses
C:Gordy Euler
R:Reel
Q: 232
K:G
M:4/4
L:1/8
|:B,A,|G,2 BA GA GE|DE DC B,2 GA|BD GB cE AG|FE D^C D=C B,A,|
G,2 BA GA GE|DE DC B,2 GA|BG cA dc GA|BA GF G2:|
|:Bc|d2 dB ec fd|gd Bd cA Bc|d2 dB ec fd|gd BG A2 B,A,|
[D2G,2] [A2D2] B2 Bd|cB AG F2 EF|G2 GE CE DC|B,C A,D G,2:|
